X:332
T:The Rambler
B:Joyce, P. W.; "Old Irish Folk Music and Songs"
R:song air
A:Antrim
O:Irish
L:1/4
M:3/4
Z:Allan Garvin
K:C
B/c/|\
dDE|FGA|AGG|G2 A|GGG|f>f f|edc|d2 c|
BAG/F/|GBd/e/|fdB|c2 B/c/|dDE|FGA|AGG|G2||
